X:1
T:Title
%%score { ( 1 3 ) | 2 }
L:1/8
M:4/4
K:Ab
V:1 treble nm="Grand Piano"
V:3 treble 
V:2 bass 
V:1
 z4 z2[Q:1/4=88] EE | [CEA]2 [CEA]>[CEA] [CEA] [CEA]2 [DEB] | cc d2 c2 cd | e2 cA e2 cA | %4
 dd c2 B2 EE | [CEA]2 [CEA]>[CEA] [CEA] [CEA]2 [DEB] | c c2 d c3 c | e4 [A=d]4 | %8
[M:7/8] [Ge]-[Ge]-[Ge]- [Ge]3 z |[M:1/8] E |[M:4/4] [Gd]2 [Gd]2 [Gd]3 E | %11
 z2 c2[K:bass][K:treble] z4 | B2 c2 d d2 d | cc d2 e3 E | [Gd]2 [Gd]2 [Gd]3 E | %15
[M:9/8] z2 c- c z z z3 |[M:4/4] [FB]2 [Af][Af] [Ae] [Ae]2 [Gd] |[M:3/4] [Ac]2 [EB]2 [CEA]2 |] %18
V:2
 z4 z2 E,E, | A,,2 A,,>A,, A,, A,,2 A,, | [A,EA][A,EA] [A,FA]2 [A,EA]2 [A,EA][A,B,A] | %3
 [A,CA]2 [A,EA][K:bass][A,CE] [A,CE]2 [A,E][A,CE] | [G,B,E][G,B,E] [A,E]2 [E,G,E]2 E,E, | %5
 A,,2 A,,>A,, A,, A,,2 A,, | [A,EA] [A,EA]2 [A,FA] [A,EA]3 [A,E] | [G,B,E]4 [F,B,]4 | %8
[M:7/8] [E,B,]-[E,B,]-[E,B,]- [E,B,]3 z |[M:1/8] [E,G,] |[M:4/4] [E,B,]2 [E,B,]2 [E,B,]3 [G,B,] | %11
 [A,E]2 .[E,A,E]2 [A,,A,]2 [A,,A,][A,,A,] | [E,G,E]2 [E,A,E]2 [E,B,E] [E,B,E]2 [E,B,E] | %13
 [A,E][A,E] [A,B,E]2 [A,CA]3 [A,C] | [E,B,]2 [E,B,]2 [E,B,]3 [G,B,] | %15
[M:9/8] [A,E]2 [G,B,=E] [F,A,] [C,G,]2- [C,G,][C,G,][C,B,] | %16
[M:4/4] [D,B,]2 [=D,_C][D,C] [E,=C] [E,C]2 [E,B,] |[M:3/4] [E,E]2 [E,D]2 [A,,E,A,]2 |] %18
V:3
 x8 | x8 | x8 | x8 | x8 | x8 | x8 | x8 |[M:7/8] x7 |[M:1/8] x |[M:4/4] x8 | %11
 c2 z[K:bass] C,[K:treble] [Ec]2 [Ec][Ec] | x8 | x8 | x8 |[M:9/8] .c3 F [=Ec]2- [Ec][Ec][Ec] | %16
[M:4/4] x8 |[M:3/4] x6 |] %18

